src/lib/packages/icons/src/assets/filled/calendar-plus.svg

<svg width="24" height="24" viewBox="0 0 24 24" fill="none" xmlns="http://www.w3.org/2000/svg">
<path d="M20.7 9.75H3.30005C3.13405 9.75 3 9.88405 3 10.05V18C3 20 4 21 6 21H18C20 21 21 20 21 18V10.05C21 9.88405 20.866 9.75 20.7 9.75ZM14.5 15.75H12.75V17.5C12.75 17.914 12.414 18.25 12 18.25C11.586 18.25 11.25 17.914 11.25 17.5V15.75H9.5C9.086 15.75 8.75 15.414 8.75 15C8.75 14.586 9.086 14.25 9.5 14.25H11.25V12.5C11.25 12.086 11.586 11.75 12 11.75C12.414 11.75 12.75 12.086 12.75 12.5V14.25H14.5C14.914 14.25 15.25 14.586 15.25 15C15.25 15.414 14.914 15.75 14.5 15.75ZM21 7.5V7.94995C21 8.11595 20.866 8.25 20.7 8.25H3.30005C3.13405 8.25 3 8.11595 3 7.94995V7.5C3 5.5 4 4.5 6 4.5H7.25V3C7.25 2.59 7.59 2.25 8 2.25C8.41 2.25 8.75 2.59 8.75 3V4.5H15.25V3C15.25 2.59 15.59 2.25 16 2.25C16.41 2.25 16.75 2.59 16.75 3V4.5H18C20 4.5 21 5.5 21 7.5Z" fill="currentColor"/>
</svg>

<svg xmlns="http://www.w3.org/2000/svg" width="24" height="24" fill="none"><path fill="currentColor" d="M20.7 9.75H3.3a.3.3 0 0 0-.3.3V18c0 2 1 3 3 3h12c2 0 3-1 3-3v-7.95a.3.3 0 0 0-.3-.3Zm-6.2 6h-1.75v1.75a.75.75 0 0 1-1.5 0v-1.75H9.5a.75.75 0 0 1 0-1.5h1.75V12.5a.75.75 0 0 1 1.5 0v1.75h1.75a.75.75 0 0 1 0 1.5ZM21 7.5v.45a.3.3 0 0 1-.3.3H3.3a.3.3 0 0 1-.3-.3V7.5c0-2 1-3 3-3h1.25V3c0-.41.34-.75.75-.75s.75.34.75.75v1.5h6.5V3c0-.41.34-.75.75-.75s.75.34.75.75v1.5H18c2 0 3 1 3 3Z"/></svg>
